images/wikipedia-wordmark-en.svg

<?xml version="1.0" encoding="UTF-8"?>
<svg xmlns="http://www.w3.org/2000/svg" width="138" height="21" viewBox="0 0 119 18">
	<title>
		Combined Shape
	</title>
	<g id="Page-1" fill="none" fill-rule="evenodd" stroke="none" stroke-width="1">
		<g id="Group-21" fill="#72777D" fill-rule="nonzero">
			<path id="Combined-Shape" d="M15.215,0.00444444444 C16.4934828,-0.0045210728 19.200327,0.00258950984 19.746682,0.00415660976 L19.844,0.00444444444 L19.901,0.0564444444 L19.901,0.552444444 C19.901,0.689444444 19.824,0.757444444 19.672,0.757444444 C18.926,0.792444444 18.773,0.866444444 18.5,1.25944444 C18.351,1.47344444 18.057,1.93444444 17.752,2.45244444 L17.752,2.45244444 L15.134,7.34844444 C15.134,7.34844444 15.1085922,7.40153032 15.0613999,7.49993864 L18.26,14.0494444 L18.454,14.1024444 L23.494,2.14144444 C23.669,1.65944444 23.642,1.31744444 23.417,1.11644444 C23.191,0.921444444 23.032,0.804444444 22.448,0.780444444 L21.975,0.757444444 C21.917,0.757444444 21.862,0.736444444 21.809,0.696444444 C21.757,0.659444444 21.73,0.610444444 21.73,0.551444444 L21.73,0.0534444444 L21.802,0.00244444444 L27.496,0.00244444444 L27.496,0.00244444444 L27.554,0.0534444444 L27.554,0.551444444 C27.554,0.686444444 27.477,0.754444444 27.325,0.754444444 C26.579,0.787444444 26.026,0.949444444 25.668,1.23844444 C25.309,1.52944444 25.029,1.92944444 24.828,2.45144444 C24.828,2.45144444 20.193,13.0594444 18.607,16.5864444 C18,17.7424444 17.403,17.6364444 16.878,16.5534444 C16.2206472,15.1996177 14.8556852,12.2137926 13.8529336,10.0063434 C12.7805182,12.2181194 11.3121895,15.2163835 10.584,16.5664444 C9.876,17.7974444 9.293,17.6364444 8.829,16.5984444 C7.218,12.7974444 3.91,6.12344444 2.353,2.38344444 C2.065,1.69444444 1.848,1.25244444 1.643,1.07744444 C1.437,0.904444444 1.009,0.800444444 0.358,0.765444444 C0.119,0.739444444 1.4033219e-13,0.681444444 1.4033219e-13,0.587444444 L1.4033219e-13,0.587444444 L1.4033219e-13,0.0664444444 L0.058,0.0154444444 C0.962117647,0.0103267974 4.8271955,0.0139392541 5.94443039,0.0151124172 L6.248,0.0154444444 L6.306,0.0664444444 L6.306,0.562444444 C6.306,0.699444444 6.219,0.765444444 6.048,0.765444444 L6.048,0.765444444 L5.402,0.792444444 C4.848,0.815444444 4.571,0.981444444 4.571,1.28844444 C4.571,1.43144444 4.629,1.66444444 4.758,1.97644444 C5.998,4.99844444 10.281,14.0294444 10.281,14.0294444 L10.281,14.0294444 L10.438,14.0704444 L13.1988388,8.56383302 C12.861268,7.81805963 12.646,7.34044444 12.646,7.34044444 L10.748,3.61044444 C10.748,3.61044444 10.381,2.86444444 10.256,2.61644444 C9.422,0.964444444 9.44,0.876444444 8.597,0.764444444 C8.361,0.733444444 8.239,0.703444444 8.239,0.586444444 L8.239,0.0634444444 L8.31,0.0124444444 L8.63792296,0.0120705185 C10.2698044,0.0104444444 13.222,0.0104444444 13.222,0.0104444444 L13.352,0.0534444444 L13.352,0.574444444 C13.352,0.693444444 13.267,0.754444444 13.094,0.754444444 L12.738,0.805444444 C11.838,0.875444444 11.985,1.24344444 12.583,2.43444444 L14.404,6.159 L16.418,2.14244444 C16.7309286,1.45994444 16.6937857,1.25254138 16.5755918,1.090283 L16.547,1.05344444 C16.467,0.958444444 16.199,0.804444444 15.616,0.781444444 L15.616,0.781444444 L15.387,0.756444444 C15.329,0.756444444 15.275,0.736444444 15.222,0.697444444 C15.17,0.660444444 15.144,0.612444444 15.144,0.551444444 L15.144,0.551444444 L15.144,0.0554444444 Z M110.358,0.119444444 C110.72,0.119444444 110.851,0.380444444 111.058,0.900444444 L116.388,14.9924444 C116.753,16.0074444 117.274,16.3964444 118.314,16.5004444 L118.599,16.5254444 C118.73,16.5254444 118.86,16.6024444 118.86,16.7344444 L118.86,17.2264444 L118.782,17.2794444 C118.782,17.2794444 116.950302,17.230953 115.902743,17.2267363 L115.765,17.2264444 C114.855,17.2264444 112.306,17.2794444 112.306,17.2794444 L112.282,17.2264444 L112.282,16.7344444 C112.282,16.6024444 112.334,16.5254444 112.467,16.5254444 L113.195,16.4724444 C114.182,16.3954444 114.548,16.0814444 114.287,15.3554444 L112.701,10.9594444 L107.291,10.9594444 C106.667,10.9594444 106.511,11.0634444 106.382,11.3994444 L104.873,15.1704444 C104.613,15.8244444 104.951,16.3974444 105.913,16.4754444 L106.667,16.5284444 C106.771,16.5284444 106.875,16.6064444 106.875,16.7354444 L106.875,17.2294444 L106.823,17.2824444 C106.823,17.2824444 104.211186,17.2335996 103.450165,17.2296921 L103.365,17.2294444 C102.688,17.2294444 101.024,17.2824444 101.024,17.2824444 L100.971,17.2294444 L100.971,16.7354444 C100.971,16.6064444 101.049,16.5284444 101.18,16.5284444 C102.325,16.4504444 102.973,16.2414444 103.701,14.5774444 L109.472,1.05644444 C109.757,0.380444444 109.966,0.119444444 110.358,0.119444444 Z M96.847926,5.2671319 L96.965,5.26744444 C97.666,5.26744444 99.67,5.21544444 99.67,5.21544444 L99.694,5.26744444 L99.694,5.83944444 C99.694,5.91744444 99.64,5.96944444 99.538,5.96944444 L98.992,6.02244444 C98.185,6.09944444 97.9,6.30844444 97.9,6.82944444 L97.903,15.4874444 C97.903,16.0594444 98.163,16.3974444 98.995,16.4754444 L99.541,16.5284444 C99.619,16.5284444 99.697,16.5794444 99.697,16.6834444 L99.697,17.2294444 L99.671,17.2824444 C99.671,17.2824444 97.8705537,17.2341531 97.0067354,17.229763 L96.89,17.2294444 C96.161,17.2294444 94.134,17.2824444 94.134,17.2824444 L94.081,17.2294444 L94.081,16.6834444 C94.081,16.5794444 94.159,16.5284444 94.263,16.5284444 L94.784,16.4754444 C95.641,16.3974444 95.902,15.9814444 95.902,15.4874444 L95.902,6.82944444 C95.902,6.25944444 95.589,6.10044444 94.784,6.02444444 L94.263,5.97044444 C94.159,5.97044444 94.081,5.94644444 94.081,5.86644444 L94.081,5.26744444 L94.107,5.21544444 C94.107,5.21544444 95.9785165,5.26282461 96.847926,5.2671319 Z M50.2196655,5.2671319 L50.337,5.26744444 C51.039,5.26744444 53.041,5.21544444 53.041,5.21544444 L53.067,5.26744444 L53.067,5.83944444 C53.067,5.91744444 53.015,5.96944444 52.911,5.96944444 L52.365,6.02244444 C51.559,6.09944444 51.273,6.30844444 51.273,6.82944444 L51.273,15.4874444 C51.273,16.0594444 51.533,16.3974444 52.365,16.4754444 L52.911,16.5284444 C52.989,16.5284444 53.067,16.5794444 53.067,16.6834444 L53.067,17.2294444 L53.041,17.2824444 C53.041,17.2824444 51.2405537,17.2341531 50.3758657,17.229763 L50.259,17.2294444 C49.531,17.2294444 47.503,17.2824444 47.503,17.2824444 L47.451,17.2294444 L47.451,16.6834444 C47.451,16.5794444 47.529,16.5284444 47.633,16.5284444 L48.153,16.4754444 C49.011,16.3974444 49.271,15.9814444 49.271,15.4874444 L49.271,6.82944444 C49.271,6.25944444 48.959,6.10044444 48.153,6.02444444 L47.633,5.97044444 C47.529,5.97044444 47.451,5.94644444 47.451,5.86644444 L47.451,5.26744444 L47.477,5.21544444 C47.477,5.21544444 49.3485165,5.26282461 50.2196655,5.2671319 Z M28.5296655,5.2671319 L28.647,5.26744444 C29.349,5.26744444 31.351,5.21544444 31.351,5.21544444 L31.377,5.26744444 L31.377,5.83944444 C31.377,5.91744444 31.325,5.96944444 31.221,5.96944444 L30.675,6.02244444 C29.869,6.09944444 29.583,6.30844444 29.583,6.82944444 L29.583,15.4874444 C29.583,16.0594444 29.843,16.3974444 30.675,16.4754444 L31.221,16.5284444 C31.299,16.5284444 31.377,16.5794444 31.377,16.6834444 L31.377,17.2294444 L31.351,17.2824444 C31.351,17.2824444 29.5505537,17.2341531 28.6858657,17.229763 L28.569,17.2294444 C27.841,17.2294444 25.813,17.2824444 25.813,17.2824444 L25.761,17.2294444 L25.761,16.6834444 C25.761,16.5794444 25.839,16.5284444 25.943,16.5284444 L26.463,16.4754444 C27.321,16.3974444 27.581,15.9814444 27.581,15.4874444 L27.581,6.82944444 C27.581,6.25944444 27.268,6.10044444 26.463,6.02444444 L25.943,5.97044444 C25.839,5.97044444 25.761,5.94644444 25.761,5.86644444 L25.761,5.26744444 L25.787,5.21544444 C25.787,5.21544444 27.6585165,5.26282461 28.5296655,5.2671319 Z M69.5732145,5.2671319 L73.509,5.26744444 C74.289,5.26744444 76.136,5.21544444 76.136,5.21544444 L76.19,5.26744444 C76.214,6.38544444 76.396,7.40144444 76.58,8.38844444 L75.932,8.49244444 C75.647,7.52944444 75.153,6.15244444 73.489,6.15244444 L71.409,6.15244444 C70.915,6.15244444 70.655,6.33444444 70.655,6.77544444 L70.655,10.5464444 L72.604,10.5464444 C73.333,10.5464444 73.514,10.2344444 73.619,9.71444444 L73.774,9.16844444 C73.774,9.09044444 73.827,9.03744444 73.93,9.03744444 L74.37,9.03744444 C74.424,9.03744444 74.424,9.06444444 74.424,9.11544444 C74.37,9.68644444 74.268,10.4164444 74.268,11.0404444 C74.268,11.6894444 74.372,12.2364444 74.424,12.8344444 L74.37,12.8874444 L73.93,12.8874444 C73.801,12.8874444 73.746,12.8344444 73.746,12.7564444 L73.616,12.1854444 C73.512,11.6644444 73.278,11.3784444 72.599,11.3784444 L70.651,11.3784444 L70.651,15.3574444 C70.651,15.8494444 70.934,16.3434444 71.405,16.3434444 L73.875,16.3434444 C75.201,16.3434444 75.931,15.5114444 76.241,14.1574444 L76.889,14.2354444 L76.368,17.2244444 L76.316,17.2764444 C76.316,17.2764444 74.782,17.2244444 74.002,17.2244444 L69.453,17.2294444 C68.673,17.2294444 66.88,17.2824444 66.88,17.2824444 L66.853,17.2294444 L66.853,16.6574444 C66.853,16.6064444 66.88,16.5284444 67.009,16.5284444 L67.609,16.4754444 C68.416,16.3974444 68.65,15.8774444 68.65,15.3584444 L68.65,6.77844444 C68.65,6.17844444 68.338,6.07544444 67.609,6.02444444 L67.009,5.97044444 C66.853,5.94644444 66.853,5.89344444 66.853,5.86644444 L66.853,5.26744444 L66.88,5.21544444 C66.88,5.21544444 68.7269153,5.26282461 69.5732145,5.2671319 Z M36.2856339,5.2671581 L36.398,5.26744444 C37.127,5.26744444 38.764,5.21544444 38.764,5.21544444 L38.79,5.26744444 L38.79,5.83944444 C38.79,5.91744444 38.738,5.94344444 38.634,5.96944444 L38.348,6.02244444 C37.542,6.17744444 37.256,6.30844444 37.256,6.82944444 L37.256,10.7564444 C38.114,10.7564444 38.608,10.3164444 39.752,9.09244444 C40.792,7.94644444 41.598,6.98844444 41.598,6.49144444 C41.598,6.28244444 41.364,6.05044444 40.844,5.97044444 C40.74,5.94644444 40.688,5.91844444 40.688,5.84044444 L40.688,5.24044444 L40.714,5.21644444 C40.714,5.21644444 42.82,5.26844444 43.574,5.26844444 C44.25,5.26844444 45.394,5.21644444 45.394,5.21644444 L45.472,5.24044444 L45.472,5.84044444 C45.472,5.91844444 45.394,5.97044444 45.264,5.97044444 C44.25,6.04844444 43.548,6.10044444 42.612,7.16644444 L40.376,9.73844444 C39.934,10.2084444 39.778,10.4924444 39.778,10.7014444 C39.778,10.8574444 39.882,10.9864444 40.012,11.1424444 L43.938,15.8744444 C44.25,16.2374444 44.874,16.3944444 45.394,16.4974444 L45.524,16.5224444 C45.602,16.5474444 45.706,16.5994444 45.706,16.6774444 L45.706,17.2234444 L45.628,17.2494444 C45.628,17.2494444 44.4073495,17.2264133 43.6568052,17.2237038 L43.522,17.2234444 C42.872,17.2234444 41.936,17.2494444 41.936,17.2494444 L41.91,17.2234444 L41.91,16.9114444 C41.91,16.5724444 41.884,16.2884444 41.52,15.8724444 L38.634,12.2834444 C38.244,11.7624444 37.828,11.6344444 37.256,11.6344444 L37.256,15.4874444 C37.256,16.0594444 37.594,16.3454444 38.348,16.4754444 L38.634,16.5284444 C38.712,16.5534444 38.79,16.5794444 38.79,16.6834444 L38.79,17.2294444 L38.764,17.2824444 C38.764,17.2824444 37.2938837,17.2348766 36.4759242,17.2298694 L36.346,17.2294444 C35.618,17.2294444 33.486,17.2824444 33.486,17.2824444 L33.434,17.2294444 L33.434,16.6834444 C33.434,16.5794444 33.512,16.5284444 33.616,16.5284444 L34.136,16.4754444 C34.916,16.3974444 35.254,15.9814444 35.254,15.4874444 L35.254,6.82944444 C35.254,6.25944444 34.968,6.10044444 34.136,6.02444444 L33.616,5.97044444 C33.512,5.97044444 33.434,5.94644444 33.434,5.86644444 L33.434,5.26744444 L33.46,5.21544444 C33.46,5.21544444 35.4106389,5.263021 36.2856339,5.2671581 Z M60.609,5.21644444 C64.299,5.21644444 64.975,7.03544444 64.975,8.38944444 C64.975,9.95044444 64.221,12.3934444 60.531,12.3934444 C59.881,12.3934444 59.361,12.3404444 58.892,12.1334444 L58.892,15.6154444 C58.892,16.1864444 59.204,16.3184444 60.037,16.4474444 L60.558,16.5254444 C60.662,16.5504444 60.741,16.5784444 60.741,16.6804444 L60.741,17.2264444 L60.717,17.2794444 C60.717,17.2794444 58.8208822,17.2311531 57.9474968,17.226763 L57.83,17.2264444 C57.102,17.2264444 55.152,17.2794444 55.152,17.2794444 L55.126,17.2264444 L55.126,16.6804444 C55.126,16.5764444 55.178,16.5504444 55.282,16.5254444 L55.828,16.4474444 C56.634,16.3434444 56.894,16.1094444 56.894,15.6154444 L56.891,6.88044444 C56.891,6.07444444 56.553,6.04844444 55.331,5.97044444 C55.175,5.97044444 55.149,5.89344444 55.149,5.84044444 L55.149,5.24244444 L55.201,5.21644444 C55.591,5.21644444 57.125,5.26844444 57.879,5.26844444 C58.607,5.26844444 59.647,5.21644444 60.609,5.21644444 Z M81.858,5.26844444 C82.35,5.26844444 84.614,5.21644444 85.29,5.21644444 C89.632,5.21644444 91.765,7.92044444 91.765,11.3784444 C91.765,15.9294444 88.54,17.2794444 85.656,17.2794444 C83.6854737,17.2794444 82.765928,17.2318766 81.9892748,17.2268694 L81.861,17.2264444 C81.08,17.2264444 79.103,17.2794444 79.103,17.2794444 L79.078,17.2264444 L79.078,16.6804444 C79.075,16.6064444 79.128,16.5284444 79.231,16.5284444 L79.829,16.4754444 C80.61,16.3974444 80.87,16.1634444 80.87,15.3584444 L80.87,6.77844444 C80.87,6.10044444 80.686,6.10044444 79.829,6.02444444 L79.259,5.97044444 C79.155,5.97044444 79.075,5.91844444 79.075,5.84044444 L79.075,5.26844444 L79.1,5.21644444 C79.1,5.21644444 81.389,5.26844444 81.858,5.26844444 Z M84.536,5.97044444 C83.522,5.97044444 82.872,6.12644444 82.872,6.77844444 L82.872,15.3584444 C82.872,16.0844444 83.053,16.5284444 85.03,16.5284444 C87.889,16.5284444 89.503,15.4644444 89.503,11.8214444 C89.503,9.11844444 88.904,5.97044444 84.536,5.97044444 Z M60.453,5.97144444 C59.204,5.97144444 58.892,6.20544444 58.892,6.88144444 L58.893,11.4054444 C59.413,11.6144444 60.063,11.6394444 60.583,11.6394444 C62.144,11.6394444 62.895,10.7014444 62.895,8.70144444 C62.895,6.46544444 61.881,5.97144444 60.453,5.97144444 Z M109.761,2.92844444 L109.709,2.92844444 L107.109,9.53244444 C107.005,9.79444444 107.186,9.87044444 107.758,9.87044444 L112.283,9.87044444 L112.283,9.86944444 L109.761,2.92844444 Z"/>
		</g>
	</g>
</svg>

<svg xmlns="http://www.w3.org/2000/svg" width="138" height="21" viewBox="0 0 119 18"><path d="M15.215.004c1.278-.009 3.985-.001 4.532 0h.097l.057.052v.496c0 .137-.077.205-.229.205-.746.035-.899.11-1.172.502-.149.214-.443.675-.748 1.193l-2.618 4.896-.073.152 3.199 6.55.194.052 5.04-11.96c.175-.483.148-.825-.077-1.026-.226-.195-.385-.312-.969-.336l-.473-.023a.272.272 0 01-.166-.06.172.172 0 01-.079-.146V.053l.072-.05h5.694l.058.05v.498c0 .135-.077.203-.229.203-.746.033-1.299.195-1.657.484-.359.291-.639.691-.84 1.213 0 0-4.635 10.608-6.221 14.135-.607 1.156-1.204 1.05-1.729-.033-.657-1.353-2.022-4.34-3.025-6.547-1.072 2.212-2.54 5.21-3.269 6.56-.708 1.231-1.291 1.07-1.755.032-1.611-3.8-4.919-10.475-6.476-14.215-.288-.689-.505-1.13-.71-1.306C1.437.904 1.009.8.358.765.119.74 0 .681 0 .587v-.52L.058.014c.904-.005 4.77-.001 5.886 0h.304l.058.051v.496c0 .137-.087.203-.258.203l-.646.027c-.554.023-.831.19-.831.496 0 .143.058.376.187.688 1.24 3.022 5.523 12.053 5.523 12.053l.157.041 2.76-5.506-.552-1.224-1.898-3.73s-.367-.746-.492-.994C9.422.964 9.44.876 8.597.764c-.236-.03-.358-.06-.358-.178V.063l.071-.05h.328C10.27.01 13.222.01 13.222.01l.13.043v.521c0 .12-.085.18-.258.18l-.356.051c-.9.07-.753.438-.155 1.63l1.821 3.724 2.014-4.017c.313-.682.276-.89.158-1.052l-.029-.037c-.08-.095-.348-.249-.931-.272l-.229-.025a.273.273 0 01-.165-.059.17.17 0 01-.078-.146V.055zm95.143.115c.362 0 .493.261.7.781l5.33 14.092c.365 1.015.886 1.404 1.926 1.508l.285.025c.131 0 .261.077.261.21v.491l-.078.053s-1.832-.048-2.88-.052h-.137a275 275 0 00-3.459.052l-.024-.053v-.492c0-.132.052-.209.185-.209l.728-.053c.987-.077 1.353-.39 1.092-1.117l-1.586-4.396h-5.41c-.624 0-.78.104-.909.44l-1.509 3.771c-.26.654.078 1.227 1.04 1.305l.754.053c.104 0 .208.078.208.207v.494l-.052.053s-2.612-.048-3.373-.052h-.085c-.677 0-2.341.052-2.341.052l-.053-.053v-.494c0-.129.078-.207.209-.207 1.145-.078 1.793-.287 2.521-1.95l5.771-13.522c.285-.676.494-.937.886-.937zm-13.51 5.148h.117c.701 0 2.705-.052 2.705-.052l.024.052v.572c0 .078-.054.13-.156.13l-.546.053c-.807.077-1.092.286-1.092.807l.003 8.658c0 .572.26.91 1.092.988l.546.053c.078 0 .156.051.156.155v.546l-.026.053s-1.8-.048-2.664-.052h-.117c-.729 0-2.756.052-2.756.052l-.053-.053v-.546c0-.104.078-.155.182-.155l.521-.053c.857-.078 1.118-.494 1.118-.988V6.83c0-.57-.313-.729-1.118-.805l-.521-.054c-.104 0-.182-.024-.182-.104v-.599l.026-.052s1.872.048 2.74.052zm-46.628 0h.117c.702 0 2.704-.052 2.704-.052l.026.052v.572c0 .078-.052.13-.156.13l-.546.053c-.806.077-1.092.286-1.092.807v8.658c0 .572.26.91 1.092.988l.546.053c.078 0 .156.051.156.155v.546l-.026.053s-1.8-.048-2.665-.052h-.117c-.728 0-2.756.052-2.756.052l-.052-.053v-.546c0-.104.078-.155.182-.155l.52-.053c.858-.078 1.118-.494 1.118-.988V6.83c0-.57-.312-.729-1.118-.805l-.52-.054c-.104 0-.182-.024-.182-.104v-.599l.026-.052s1.872.048 2.743.052zm-21.69 0h.117c.702 0 2.704-.052 2.704-.052l.026.052v.572c0 .078-.052.13-.156.13l-.546.053c-.806.077-1.092.286-1.092.807v8.658c0 .572.26.91 1.092.988l.546.053c.078 0 .156.051.156.155v.546l-.026.053s-1.8-.048-2.665-.052h-.117c-.728 0-2.756.052-2.756.052l-.052-.053v-.546c0-.104.078-.155.182-.155l.52-.053c.858-.078 1.118-.494 1.118-.988V6.83c0-.57-.313-.729-1.118-.805l-.52-.054c-.104 0-.182-.024-.182-.104v-.599l.026-.052s1.872.048 2.743.052zm41.043 0h3.936c.78 0 2.627-.052 2.627-.052l.054.052c.024 1.118.206 2.134.39 3.121l-.648.104c-.285-.963-.779-2.34-2.443-2.34h-2.08c-.494 0-.754.182-.754.623v3.771h1.949c.729 0 .91-.312 1.015-.832l.155-.546c0-.078.053-.13.156-.13h.44c.054 0 .054.026.054.077-.054.571-.156 1.301-.156 1.925 0 .65.104 1.196.156 1.794l-.054.053h-.44c-.129 0-.184-.053-.184-.13l-.13-.572c-.104-.52-.338-.807-1.017-.807h-1.948v3.98c0 .491.283.985.754.985h2.47c1.326 0 2.056-.832 2.366-2.186l.648.078-.521 2.99-.052.051s-1.534-.052-2.314-.052l-4.549.005c-.78 0-2.573.053-2.573.053l-.027-.053v-.572c0-.05.027-.129.156-.129l.6-.053c.807-.078 1.041-.598 1.041-1.117v-8.58c0-.6-.312-.703-1.041-.754l-.6-.054c-.156-.024-.156-.077-.156-.104v-.599l.027-.052s1.847.048 2.693.052zm-33.287 0h.112c.729 0 2.366-.052 2.366-.052l.026.052v.572c0 .078-.052.104-.156.13l-.286.053c-.806.155-1.092.286-1.092.807v3.927c.858 0 1.352-.44 2.496-1.664 1.04-1.146 1.846-2.104 1.846-2.6 0-.21-.234-.442-.754-.522-.104-.024-.156-.052-.156-.13v-.6l.026-.024s2.106.052 2.86.052c.676 0 1.82-.052 1.82-.052l.078.024v.6c0 .078-.078.13-.208.13-1.014.078-1.716.13-2.652 1.196l-2.236 2.572c-.442.47-.598.754-.598.963 0 .156.104.285.234.441l3.926 4.732c.312.363.936.52 1.456.623l.13.025c.078.025.182.077.182.155v.546l-.078.026s-1.22-.023-1.971-.025h-.135c-.65 0-1.586.025-1.586.025l-.026-.026v-.312c0-.339-.026-.623-.39-1.039l-2.886-3.589c-.39-.52-.806-.649-1.378-.649v3.853c0 .572.338.858 1.092.988l.286.053c.078.025.156.051.156.155v.546l-.026.053s-1.47-.047-2.288-.052h-.13c-.728 0-2.86.052-2.86.052l-.052-.053v-.546c0-.104.078-.155.182-.155l.52-.053c.78-.078 1.118-.494 1.118-.988V6.83c0-.57-.286-.729-1.118-.805l-.52-.054c-.104 0-.182-.024-.182-.104v-.599l.026-.052s1.95.048 2.826.052zm24.323-.05c3.69 0 4.366 1.818 4.366 3.172 0 1.561-.754 4.004-4.444 4.004-.65 0-1.17-.053-1.639-.26v3.482c0 .571.312.703 1.145.832l.521.078c.104.025.183.053.183.155v.546l-.024.053s-1.896-.048-2.77-.052h-.117c-.728 0-2.678.052-2.678.052l-.026-.053v-.546c0-.104.052-.13.156-.155l.546-.078c.806-.104 1.066-.338 1.066-.832l-.003-8.735c0-.806-.338-.832-1.56-.91-.156 0-.182-.077-.182-.13v-.598l.052-.026c.39 0 1.924.052 2.678.052.728 0 1.768-.052 2.73-.052zm21.249.051c.492 0 2.756-.052 3.432-.052 4.342 0 6.475 2.704 6.475 6.162 0 4.551-3.225 5.901-6.109 5.901-1.97 0-2.89-.047-3.667-.052h-.128c-.781 0-2.758.052-2.758.052l-.025-.053v-.546a.145.145 0 01.153-.152l.598-.053c.781-.078 1.041-.312 1.041-1.117v-8.58c0-.678-.184-.678-1.041-.754l-.57-.054c-.104 0-.184-.052-.184-.13v-.572l.025-.052s2.289.052 2.758.052zm2.678.702c-1.014 0-1.664.156-1.664.808v8.58c0 .726.181 1.17 2.158 1.17 2.859 0 4.473-1.064 4.473-4.707 0-2.703-.599-5.85-4.967-5.85zm-24.083.001c-1.249 0-1.561.234-1.561.91l.001 4.524c.52.21 1.17.234 1.69.234 1.561 0 2.312-.938 2.312-2.938 0-2.236-1.014-2.73-2.442-2.73zm49.308-3.043h-.052l-2.6 6.604c-.104.262.077.338.649.338h4.525l-2.522-6.942z" fill="#72777D"/></svg>
